assets/img/braze_icons/arrow-narrow-up-left.svg

<svg fill="none" height="24" viewBox="0 0 24 24" width="24" xmlns="http://www.w3.org/2000/svg"><path d="m6 5c-.55228 0-1 .44772-1 1v8c0 .5523.44772 1 1 1s1-.4477 1-1v-5.58579l10.2929 10.29289c.3905.3905 1.0237.3905 1.4142 0s.3905-1.0237 0-1.4142l-10.29289-10.2929h5.58579c.5523 0 1-.44772 1-1s-.4477-1-1-1z" fill="#801ed7"/></svg>

<svg width="24" height="24" viewBox="0 0 24 24" fill="none" xmlns="http://www.w3.org/2000/svg">
<path d="M6 5C5.44772 5 5 5.44772 5 6V14C5 14.5523 5.44772 15 6 15C6.55228 15 7 14.5523 7 14V8.41421L17.2929 18.7071C17.6834 19.0976 18.3166 19.0976 18.7071 18.7071C19.0976 18.3166 19.0976 17.6834 18.7071 17.2929L8.41421 7H14C14.5523 7 15 6.55228 15 6C15 5.44772 14.5523 5 14 5H6Z" fill="#801ED7"/>
</svg>
